X:1
T:Missa "Candida" per SAA (o SAT)
T:Missa "Candida" per SAA (o SAT)
T:F.L.Luciani
C:F.L.Luciani
%%score [ 1 2 ( 3 4 ) ] { ( 5 6 ) | ( 7 8 9 ) }
L:1/8
Q:1/4=96
M:6/4
K:F
V:1 treble nm="Soprano" snm="S"
V:2 treble nm="Alto" snm="A"
V:3 treble-8 nm="Tenore" snm="T"
V:4 treble-8 
V:5 treble nm="Organo" snm="Org."
V:6 treble 
V:7 treble 
V:8 treble 
V:9 treble 
V:1
"^Andante" x6[Q:3/4=46] A2 B2 c2 | c4 c2 G2 A2 B2 | B4 B2 F2 G2 A2 | (A6- A2 c2 B2) | G6 A2 B2 c2 | %5
 (c2 d2) c2 G2 A2 B2 | (B2 c2) B2 F2 G2 A2 | (A2 B2 A2 c2 B2 A2) | G6 f2 e2 d2 | %9
 (c2 d2) c2 _e2 d2 c2 | (B2 c2) B2 _d2 c2 B2 | (A2 B2 c2 G4 F2) | F6 |] %13
[M:1/1][Q:1/4=120]"^Allegro" z4 z2 cB | A2 A2 G2 G2 | F2 F2 F4 | F2 G2 A2 B2 |"^Gloria" G8 | A8- | %19
 A4 F4 | G4 A4 | B4 G2 G2 | A2 A2 =B4 | c4 A2 A2 | =B4 ^c4 | d2 d2 d2 e2 | f8 | d8 | e8- | e8 | %30
 c4 c2 c2 | c4 d2 e2 | d4 c4 | =B4 c4 | c4 (_B2 A2) | B4 c2 B2 | (B4 A2 ^G2) | A8 | A4 A2 A2 | %39
 A2 A2 B2 c2 | (c6 BA) | G4 G2 G2 | (F4 A4) | G4 F4 | E4 D4 | C8 | C4 C2 C2 | ^C2 C2 ^B,2 C2 | %48
 D6 D2 | E4 D2 E2 | (F8 | G4 ^G4) | A8- | A8 | A4 A2 A2 | A2 A2 B2 c2 | (c6 BA) | G8 | (F4 A4) | %59
 G4 F4 | (E4 F4) | G4 z2 G2 | _A4 A2 A2 | _A4 A4 | _A4 A4 | _A4 A4 | _A8 | G8 | G4 G4 | z4 G4 | %70
 _A4 A2 A2 | _A4 A4 | _A4 A4 | _A4 B4 | c8- | c8 | _d4 c4 | B4 _A4 | G8 | _A8 | _A8- | A8 | G8- | %83
 G4 G4 | _A4 A2 A2 | =A4 A2 A2 | B4 B4 | B4 c4 | _d8 | f8 | f8 | e8 | f6 f2 | f8- | f6 F2 | G4 A4 | %96
 B4 B2 G2 | A4 =B4 | c3 c c2 A2 | A4 =B2 ^c2 | d3 d d4 | d4 e4 | (f8 | d8) | e8- | e8 | %106
 z2 C2 D2 E2 | F2 G2 A2 B2 | (c4 B4 | A2 G2) F2 F2 | E4 D4 | C4 A4 | (G2 C2 D2 E2) | F8 | B4 B4 | %115
 A4 F4 | c8 | A8 | z2 (F2 G2 A2 | B4 c4 | d8 | e8) | !fermata!f8 |][M:2/2] z4[Q:1/2=72] z2 cB | %124
 (AGFG) A2 AB | (cBAB) G2 FG | (ABcB) A2 AG | (FBdf) f4 | !fermata!z8 :| %129
[M:2/2][Q:1/4=40]"^Adagio"[Q:1/2=44] A2 A2 c2 c2 | f4 e4 | d2 dd c2 d2 | c2 B2 A4 | G2 GG G2 AB | %134
 c4 d4 | c2 dd (c2 =B2) | c6 c2 | d4 d4 | (B2 c2) (d2 e2) | e4 f4 |"^SOLI" z4 z2 AA | A2 A4 A2 | %142
 c2 G4 G2 | (F2 A2) G2 F2 | E2 F2 G2 c2 | d4 d4 | (B2 c2) (d2 e2) | e4 f4 |] %148
[M:2/2] c4[Q:1/2=80] c4 | =B4 c2 c2 | c4 B2 A2 | c4 B4 | B4 A4- | A4 A2 A2 | A4 G4- | G8 | A4 G4- | %157
 G8 | c4 c4 | =B2 c2 c4 | c4 _B2 A2 | c4 B4 | B4 A4- | A4 A2 A2 | A4 G4- | G8 | ^F4 G4- | G8 | %168
 c4 d4 | (d2 =B2) c2 c2 | c4 f2 d2 | (c2 =B2) (_B2 c2) | B4 A4- | A8 | A4 G4 | ^F4 G4 | (A8- | A8 | %178
 G8-) | G8 | F8 |] %181
V:2
"^Ky - ri  -  e e   -    lei   -      son,  Ky - ri - e e  -  lei    -   son, Ky- ri - e e  - lei              -                 son.          Christe   e  -  lei   -    son, Christe   e  -""^Ky - ri  -  e e   -    lei   -      son,  Ky - ri - e e  -  lei    -   son, Ky- ri - e e  - lei              -                 son.          Christe   e  -  lei   -    son, Christe   e  -" x6 A2 A2 A2 | %1
 G4 G2 G2 G2 G2 | F4 F2 F2 F2 F2 | F12 | E6 A2 A2 A2 | G4 G2 G2 G2 G2 | %6
"^lei  -   son,Christe  e  -  lei              -                 son.       Ky- ri- e e-  lei  -  son, Ky-ri - e e- lei   -  son, Ky-ri- e e -  lei                  -               son." F4 F2 F2 F2 F2 | %7
 F12 | E6 A2 A2 A2 | G4 G2 G2 G2 G2 | F4 F2 F2 F2 F2 | (F6- F2 E4) | F6 |] %13
[M:1/1]"^Et   in     ter-ra  pax ho - mi- ni-bus      bo-nae vo-lun - ta     -       tis.                    Lau -    da  - mus    Te.     Be-ne  -   di - ci -mus   Te.    A - do-" z4 z2 AG | %14
 F2 F2 E2 E2 | C2 C2 C4 | C2 E2 F2 D2 | E8 | F8- | F4 F4 | F4 F4 | F4 G2 G2 | G2 G2 G4 | G4 A2 A2 | %24
"^ra  -  mus     Te.Glo- ri - fi -    ca     -        mus               Te.                              Gra -  ti -  as      a   -   gi-mus   ti   -   bi          pro  - pter      ma -  gnam""^ra  -  mus     Te.Glo- ri - fi -    ca     -        mus               Te.                              Gra -  ti -  as      a   -   gi-mus   ti   -   bi          pro  - pter      ma -  gnam" A4 A4 | %25
 A2 A2 A2 A2 | A8 | G8 | (_d8 | c8) | A4 A2 A2 | A4 A2 A2 | G4 G4 | G4 G4 | F4 F4 | %35
"^glo - ri - am       tu     -                am.          Do - mi- ne    De-us Rex coe- le         -        stis.    De- us      Pa     -           ter     om   -  ni  -  po  -    tens." F4 F2 F2 | %36
 E8 | E8 | F4 F2 F2 | F2 F2 F2 F2 | E8 | E4 E2 E2 | (D4 F4) | E4 D4 | C4 =B,4 | C8 | %46
"^Do  -  mi-ne       fi -li     u - ni - ge    -    ni -  te     Je - su  Chri              -                  ste.                                    Do -  mi- ne    De-us A-gnus   De     -" C4 C2 C2 | %47
 ^C2 C2 ^B,2 C2 | D6 D2 | D4 D2 D2 | D8- | D8 | (D4 E2 D2 | ^C8) | F4 F2 F2 | F2 F2 F2 F2 | E8 | %57
"^i,                Fi       -            li  -    us        Pa      -          tris.          Qui    tol  -   lis pec -   ca  -   ta         mun -  di          mi  -  se   -       re       -       re" E8 | %58
 (D4 F4) | E4 D4 | (C4 D4) | E4 z2 E2 | F4 F2 F2 | F4 F4 | F4 F4 | F4 F4 | F8 | F8 | %68
"^no  -  bis.                Qui         tol -   lis  pec  -  ca   -  ta          mun - di           su   - sci    -     pe                                  de  -  pre   -   ca  -    ti   -      o     -" F4 E4 | %69
 z4 E4 | F4 F2 F2 | F4 F4 | F4 F4 | F4 G4 | _A8- | A8 | B4 _A4 | G4 F4 | E8 | %79
"^nem              no               -                stram.                    Qui          se  -  des  ad      de   - xte- ram    Pa -   tris          mi  -   se   -       re     -          re" F8 | %80
 (F8 | D8) | E8- | E4 E4 | F4 F2 F2 | F4 F2 F2 | F4 F4 | F4 F4 | F8 | B8 | %90
"^no       -      bis.              Quo -    ni  -  am                        Tu      so   - lus       San-ctus, Tu        so  - lus       Do-mi-nus, Tu    so  -  lus  Al -  tis - si - mus""^no       -      bis.              Quo -    ni  -  am                        Tu      so   - lus       San-ctus, Tu        so  - lus       Do-mi-nus, Tu    so  -  lus  Al -  tis - si - mus" _A8 | %91
 G8 | =A6 A2 | A8- | A6 F2 | F4 F4 | F4 F2 G2 | G4 G4 | G3 G G2 A2 | A4 A2 A2 | A3 A A4 | %101
"^Je  -    su      Chri             -                 ste.                                 Cum Sancto Spi- ri- tu   in   glo         -            -          ri  - a     De   -    i           Pa   -   tris." (A4 A4) | %102
 (A8 | G8) | (_d8 | c8) | z8 | z8 | z2 C2 D2 E2 | F2 G2 A2 B2 | (c4 B4 | A2 G2) F2 F2 | %112
"^A          -           men.                  De   -    i           Pa -   tris.       A          -          men.                 A                 -                     -                -               men." E4 D4 | %113
 C4 A4 | (G2 C2 D2 E2) | F4 z4 | G8 | F8 | z2 (D2 E2 F2 | G4 A4 | B8- | B8) | !fermata!A8 |] %123
[M:2/2]"^Al -le - lu        -         ia,      al- le  - lu        -         ia,       al- le - lu        -          ia,      al- le -  lu      -        ia." z4 z2 AG | %124
 (FCA,C) F2 FG | (AGFG) C2 DE | (FGAG) F2 FE | (D2 B2) A4 | !fermata!z8 :| %129
[M:2/2]"^San - ctus,  San - ctus,    San   -     ctus            Do -  mi-nus De -   us       Sa  -    ba  - oth.             Ple - ni  sunt coe - li    et      ter     -         ra" A2 A2 A2 A2 | %130
 A4 A4 | F2 FF F2 F2 | F2 E2 F4 | F2 FF E2 ED | (C2 F2) (F2 G2) | %135
"^glo -    ri -  a    tu        -             a.                    Ho  -  san     -      na               in                  ex       -             cel      -    sis.                                            Be-ne-" A2 AA G3 F | %136
 E6 G2 | F4 F4 | (D2 E2) (F2 G2) | ^G4 A4 | F4 F4 | %141
"^di  - ctus          qui      ve  -  nit           in          no     -      mi -  ne       Do -  mi -  ni.    Ho -  san   -     na            in              ex      -          cel   -     sis." F4 F2 F2 | %142
 E4 E2 E2 | D4 D2 D2 | C2 D2 E2 G2 | F4 F4 | (D2 E2) (F2 G2) | ^G4 A4 |] %148
[M:2/2]"^A   -     gnus          De    -    i    qui       tol   -    lis     pec  - ca     -   ta            mun  -   di:                        mi - se  -      re     -   re" A4 A4 | %149
 G4 G2 G2 | _G4 G2 G2 | F4 F4 | F4 F4- | F4 F2 F2 | F4 F4- | F8 | %156
"^no   -    bis.                                         A    -   gnus          De  -  i     qui               tol   -     lis    pec -  ca    -    ta            mun   -   di:                        mi -  se -" E4 E4- | %157
 E8 | A4 A4 | G4 G2 G2 | _G4 G2 G2 | F4 F4 | F4 F4- | F4 F2 F2 | %164
"^re    -    re                                           no     -  bis.                                    A    -   gnus        De    -       i     qui       tol    -    lis   pec -   ca     -      ta" F4 F4- | %165
 F8 | E4 E4- | E8 | A4 A4 | G4 G2 G2 | _G4 G2 G2 | F4 F4 | %172
"^mun   -   di:                                        do   -    na             no   -   bis           pa                        -                         -                          -                       cem." F4 F4- | %173
 F8 | F8 | F8 | F8 | F8 | (F4 E4 | D4 E4) | F8 |] %181
V:3
 x6 f2 f2 f2 | e4 e2 _e2 e2 e2 | d4 d2 _d2 d2 d2 | c12 | c6 f2 f2 f2 | e4 e2 _e2 e2 e2 | %6
"^lei  -   son,Christe  e  -  lei              -                 son.       Ky- ri- e e-  lei  -  son, Ky-ri - e e- lei   -  son, Ky-ri- e e -  lei                  -               son." d4 d2 _d2 d2 d2 | %7
 c12 | c6 f2 f2 f2 | e4 e2 _e2 e2 e2 | d4 d2 _d2 d2 d2 | c12 |"^(""^)" f6 |] %13
[M:1/1]"^Et   in     ter-ra  pax ho - mi- ni-bus      bo-nae vo-lun - ta     -       tis.                    Lau -    da  - mus    Te.     Be-ne  -   di - ci -mus   Te.    A - do-" z4 z2 fd | %14
 c2 c2 c2 B2 | A2 A2 A4 | A2 c2 f2 B2 | c8 | F8- | F4 f4 | e4 _e4 | d4 g2 g2 | ^f2 f2 =f4 | %23
 e4 a2 a2 | ^g4 =g4 | f2 f2 f2 e2 | d8 | B8 | (A8 | c8) | f4 f2 f2 | f4 f2 f2 | e4 e4 | e4 e4 | %34
 d4 d4 | %35
"^glo - ri - am       tu     -                am.          Do - mi- ne    De-us Rex coe- le         -        stis.    De- us      Pa     -           ter     om   -  ni  -  po  -    tens." d4 d2 d2 | %36
 ^c8 | ^c8 | d4 d2 d2 | d2 d2 d2 d2 | c8 | c4 c2 c2 | =B8 | =B4 B4 | c4 G4 |"^(""^)" [Cc]8 | %46
"^Do  -  mi-ne       fi -li     u - ni - ge    -    ni -  te     Je - su  Chri              -                  ste.                                    Do -  mi- ne    De-us A-gnus   De     -""^Do  -  mi-ne       fi -li     u - ni - ge    -    ni -  te     Je - su  Chri              -                  ste.                                    Do -  mi- ne    De-us A-gnus   De     -" A4 A2 A2 | %47
 A2 A2 A2 A2 | B6 B2 | B4 B2 B2 | B8- | B8 | A8- | A8 | d4 d2 d2 | d2 d2 d2 d2 | c8 | %57
"^i,                Fi       -            li  -    us        Pa      -          tris.          Qui    tol  -   lis pec -   ca  -   ta         mun -  di          mi  -  se   -       re       -       re" c8 | %58
 =B8 | =B4 B4 | c8 | c4 z2 c2 | f4 f2 f2 | _e4 e4 | _d4 d4 | c4 c4 | =B8 | =B8 | %68
"^no  -  bis.                Qui         tol -   lis  pec  -  ca   -  ta          mun - di           su   - sci    -     pe                                  de  -  pre   -   ca  -    ti   -      o     -" c4 c4 | %69
 z4 c4 | f4 f2 f2 | _e4 e4 | d4 d4 | _d4 d4 | c8- | c8 | B4 B4 | B4 B4 | B8 | %79
"^nem              no               -                stram.                    Qui          se  -  des  ad      de   - xte- ram    Pa -   tris          mi  -   se   -       re     -          re""^nem              no               -                stram.                    Qui          se  -  des  ad      de   - xte- ram    Pa -   tris          mi  -   se   -       re     -          re" =B8 | %80
 c8- | c8 | c8- | c4 c4 | f4 f2 f2 | _e4 e2 e2 | _d4 d4 | _d4 c4 | B8 | _d8 | c8 | c8 | f6 f2 | %93
 f8- | f6 f2 | e4 _e4 | d4 d2 g2 | ^f4 =f4 | e3 e e2 a2 | a4 ^g2 =g2 | f3 f f4 | %101
"^Je  -    su      Chri             -                 ste.                                                                                   Cum Sancto Spi- ri- tu   in   glo         -            -          ri  - a" f4 e4 | %102
 (d8 | B8) | (A8 | c8) | z8 | z8 | z8 | z8 | z2 c2 d2 e2 | f2"^(" [cg]2 [Aa]2 [Bb]2 | %112
"^De   -   i            Pa   -   tris" [cc']4 [Bb]4 | [Aa]2 [Gg]2"^)" [Ff]2 f2 | %114
"^A          -          men." e4 c4 | d4 d4 |"^A          -          men." (e2 c2 d2 e2) | f8 | %118
"^A                 -                     -                -               men." (B8- | B8- | B8 | %121
 c8) | !fermata![Ff]8 |] %123
[M:2/2]"^Al -le - lu        -         ia,      al- le  - lu        -         ia,       al- le - lu        -          ia,      al- le -  lu      -        ia." z4 f2 f2 | %124
 f4 f2 f2 | f4 c2 c2 | (c2 ^c2) d2 A2 | B4 f4 | !fermata!z8 :| %129
[M:2/2]"^San - ctus,  San - ctus,    San   -     ctus            Do -  mi-nus De -   us       Sa  -    ba  - oth.             Ple - ni  sunt coe - li    et      ter     -         ra" f2 f2 e2 e2 | %130
 d4 c4 | B2 BB A2 B2 | c2 c2 d4 | _d2 dd c2 cB | A4 B4 | %135
"^glo -    ri -  a    tu        -             a.                    Ho  -   san     -     na                in                 ex       -             cel      -     sis.              Be         -      ne       -" c2 cc d4 | %136
 c6 e2 | d4 A4 | B4 B4 | f4 f4 | d4 d4 | %141
"^di     -     ctus  qui      ve       -    nit     in          no     -      mi -  ne       Do -  mi -  ni.    Ho -  san   -     na            in              ex      -          cel   -     sis." d4 d2 d2 | %142
 c4 c2 c2 | =B4 B2 B2 | c2 c2 c2 e2 | d4 A4 | B4 B4 | f4 f4 |] %148
[M:2/2]"^A   -     gnus          De    -    i    qui       tol   -    lis     pec  - ca     -   ta            mun  -   di:                        mi - se  -      re     -   re" f4 f4 | %149
 e4 e2 e2 | _e4 e2 e2 | d4 _d4 | c4 c4 | c4 c4 | =B8 | (^A4 =B4) | %156
"^no   -    bis.                                         A    -   gnus          De      -      i     qui       tol   -     lis    pec -  ca    -    ta            mun   -   di:                        mi -  se -" c8 | %157
 (=B4 c4) | f4 f4 | e4 e2 e2 | _e4 e2 e2 | d4 _d4 | c4 c4 | c4 c4 | %164
"^re    -     re                                          no     -  bis.                                        A    -   gnus        De    -       i     qui       tol    -    lis   pec -   ca     -      ta""^re          -                 re                        no          -              bis.                      A    -   gnus        De    -        i     qui       tol    -    lis   pec -   ca     -      ta" =B8 | %165
 (^A4 =B4) | c8 | (d4 c4) | f4 f4 | e4 e2 e2 | _e4 e2 e2 | d4 _d4 | %172
"^mun   -   di:                                        do         -               na                      no         -             bis                     pa          -             -           -            cem.""^mun         -            di:                         do          -              na                      no         -            bis                       pa                        -                       cem." c8 | %173
 (d4 c4) | =B8 | =B8 | (c4 A4) | (B4 =B4) | c8- | c8 | [Fc]8 |] %181
V:4
 x12 | x12 | x12 | x12 | x12 | x12 | x12 | x12 | x12 | x12 | x12 | x12 | F6 |][M:1/1] x8 | x8 | %15
 x8 | x8 | x8 | x8 | x8 | x8 | x8 | x8 | x8 | x8 | x8 | x8 | x8 | x8 | x8 | x8 | x8 | x8 | x8 | %34
 x8 | x8 | x8 | x8 | x8 | x8 | x8 | x8 | x8 | x8 | x8 | x8 | x8 | x8 | x8 | x8 | x8 | x8 | x8 | %53
 x8 | x8 | x8 | x8 | x8 | x8 | x8 | x8 | x8 | x8 | x8 | x8 | x8 | x8 | x8 | x8 | x8 | x8 | x8 | %72
 x8 | x8 | x8 | x8 | x8 | x8 | x8 | x8 | x8 | x8 | x8 | x8 | x8 | x8 | x8 | x8 | x8 | x8 | x8 | %91
 x8 | x8 | x8 | x8 | x8 | x8 | x8 | x8 | x8 | x8 | x8 | x8 | x8 | x8 | x8 | x8 | x8 | x8 | x8 | %110
 x8 | x8 | x8 | x8 | x8 | x8 | x8 | x8 | x8 | x8 | x8 | x8 | x8 |][M:2/2] x8 | x8 | x8 | x8 | x8 | %128
 x8 :|[M:2/2] x8 | x8 | x8 | x8 | x8 | x8 | x8 | x8 | x8 | x8 | x8 | x8 | x8 | x8 | x8 | x8 | x8 | %146
 x8 | x8 |][M:2/2] x8 | x8 | x8 | x8 | x8 | x8 | x8 | x8 | x8 | x8 | x8 | x8 | x8 | x8 | x8 | x8 | %164
 x8 | x8 | x8 | x8 | x8 | x8 | x8 | x8 | x8 | x8 | x8 | x8 | x8 | x8 | x8 | x8 | x8 |] %181
V:5
"^Ky - ri  -  e e   -     lei   -     son,  Ky - ri - e e  -   lei    -   son, Ky- ri - e e  - lei              -                 son.          Christe   e  -  lei   -    son, Christe   e  -" x6 z2 B2 c2 | %1
 c6 z2 A2 B2 | B6 z2 G2 A2 | A6- A2 c2 B2 | G6 z2 B2 c2 | c2 d2 c2 z2 A2 B2 | %6
"^lei  -   son,Christe  e  -  lei              -                 son.       Ky- ri- e e-  lei  -  son, Ky-ri - e e- lei   -  son, Ky-ri- e e -  lei                  -               son." B2 c2 B2 z2 G2 A2 | %7
 A2 B2 A2 c2 B2 A2 | G6 f2 e2 d2 | c2 d2 c2 _e2 d2 c2 | B2 c2 B2 _d2 c2 B2 | A2 B2 c2 G4 F2 | F6 |] %13
[M:1/1]"^Et   in     ter-ra  pax ho - mi- ni-bus      bo-nae vo-lun - ta     -       tis.                    Lau -    da  - mus    Te.     Be-ne  -   di - ci -mus   Te.    A - do-" z4 z2 [Ac][GB] | %14
 [FA]2 [FA]2 [EG]2 [EG]2 | [CF]8 | [CF]2 [EG]2 [FA]2 [DB]2 | [EG]8 | [FA]8- | [FA]4 F4 | G4 A4 | %21
 B4 z4 | A4 =B4 | c4 z4 | %24
"^ra  -  mus     Te.Glo- ri - fi -    ca     -        mus               Te.                              Gra -  ti -  as      a   -   gi-mus   ti   -   bi          pro  - pter      ma -  gnam" =B4 ^c4 | %25
 d2 d4 e2 | f8 | d8 | e8- | e8 | c8- | c4 d2 e2 | d4 c4 | =B4 c4- | c4 B2 A2 | %35
"^glo - ri - am       tu     -                am.          Do - mi- ne    De-us Rex coe- le         -        stis.    De- us      Pa     -           ter     om   -  ni  -  po  -    tens." B4 c2 B2- | %36
 B4 A2 ^G2 | A8 | A8- | A4 B2 c2- | c6 BA | G4 [EG]4 | [DF]4 [FA]4 | [EG]4 [DF]4 | E4 D4 | C8 | %46
 C8 | ^C4 ^B,2 C2 | x8 | E4 D2 E2 | F8 | G4 ^G4 | A8- | A8 | A8- | A4 B2 c2- | c6 BA | %57
"^i,                Fi       -           li  -     us        Pa      -          tris.        Qui     tol  -   lis pec -   ca  -   ta         mun -  di          mi  -  se   -       re       -       re" G8 | %58
 [DF]4 [FA]4 | [EG]4 [DF]4 | E4 [DF]4 | [EG]6 G2 | _A8- | A8- | A8- | A8- | A8 | G8- | %68
"^no  -  bis.                Qui         tol -   lis  pec  -  ca   -  ta          mun - di           su   - sci    -     pe                                  de  -  pre   -   ca  -    ti   -      o     -" G8 | %69
 z4 [EG]4 | [F_A]8- | [FA]8- | [FA]8- | [FA]4 [GB]4 | [_Ac]8- | [Ac]8 | [B_d]4 [_Ac]4 | %77
 [GB]4 [F_A]4 | [EG]8 | [F_A]8 | _A8- | A8 | G8- | [EG]4 [EG]4 | _A8 | =A8 | B8 | B4 c4 | _d8 | %89
 f8- | %90
"^no       -      bis.              Quo -    ni  -  am                        Tu      so   - lus       San-ctus, Tu        so  - lus       Do-mi-nus, Tu    so  -  lus  Al -  tis - si - mus" f8 | %91
 e8 | f8- | f8- | f6 F2 | G4 A4 | B6 G2 | A4 =B4 | c6 A2 | z4 =B2 ^c2 | d8 | %101
"^Je  -    su      Chri             -                 ste.                                                                                                                                      Cum Sancto Spi- ri- tu   in" d4 e4 | %102
 f8 | d8 | e8- | e8 | z2 C2 D2 E2 | F2 G2 A2 B2 | c4 B4 | A2 G2 A2 B2 | c4 B4 | [FA]2 G2 z2 B2 | %112
"^glo         -            -          ri  - a     De   -   i            Pa   - tris" c4 B4 | %113
 [FA]2 G2 [FA]4 | [GB]8 | [FA]4 F4 |"^A          -           men." [Gc]8 | A8 | %118
"^A                 -                     -                -                   men." z2 [DF]2 [EG]2 [FA]2 | %119
 [GB]4 [Ac]4 | [B-d]8 | [Be]8 | !fermata![Af]8 |] %123
[M:2/2]"^Al  -  le   -    lu          -     ia al -   le   -     lu        -       ia al  -  le    -     lu       -        ia al  -  le   -     lu               ia." z4 z2 [Ac][GB] | %124
 AGFG A2 A[GB] | [Ac][GB]A[GB] G2 FG | [FA][GB][Ac][GB] [FA]2 AG | FBdf- f4 | !fermata!z8 :| %129
[M:2/2]"^San - ctus,  San - ctus,    San   -     ctus            Do -  mi-nus De -   us       Sa  -    ba  - oth.             Ple - ni  sunt coe - li    et      ter     -         ra" z4 c4 | %130
 f4 e4 | d4 c2 d2 | c2 B2 A4 | G6 AB | c4 d4 | %135
"^glo -    ri -  a    tu        -             a.                    Ho  -  san     -      na               in                 ex       -             cel      -     sis.               Be        -      ne        -" c2 d2 c2 =B2 | %136
 c6 [Gc]2 | [Fd]8 | B2 c2 d2 e2 | [^Ge]4 [Af]4 | z4 z2 A2- | %141
"^di     -     ctus   qui      ve      -    nit     in          no     -      mi -  ne       Do -  mi -  ni.    Ho -  san   -     na            in              ex      -          cel   -     sis." A2 A4 A2 | %142
 c2 G4 G2 | F2 A2 G2 F2 | E2 F2 G2 [Gc]2 | [Fd]8 | B2 c2 d2 e2 | [^Ge]4 [Af]4 |] %148
[M:2/2]"^A   -     gnus          De    -    i    qui       tol   -    lis     pec  - ca     -   ta            mun  -   di:           mi   -    se       -          re           -             re" c8 | %149
 =B4 c4 | c4 _B2 A2 | c4 B4 | B4 A4- | A4 A4 | A4 G4- | G8 | %156
"^no          -              bis.                       A    -   gnus          De     -       i     qui        tol   -    lis    pec -   ca    -    ta            mun   -   di:           mi   -    se -" A4 G4- | %157
 G8 | c8 | =B2 c2 c4 | c4 _B2 A2 | c4 B4 | B4 A4- | A4 A4 | A4 G4- | G8 | ^F4 G4- | G8 | c4 d4 | %169
 d2 =B2 c4 | c4 f2 d2 | c2 =B2 _B2 c2 | B4 A4- | A8 | A4 G4 | ^F4 G4 | A8- | A8 | G8- | G8 | F8 |] %181
V:6
 x6 A6 | G6 G6 | F6 F6- | F12 | E6 A6 | G6 G6 | F6 F6- | F12 | E6 A6 | G12 | F12- | F6- F2 E4 | %12
 F6 |][M:1/1] x8 | x8 | x8 | x8 | x8 | x8 | x4 F4- | F8- | F4 G4- | G8- | G4 A4- | A8- | A2 A6- | %26
 A8 | G8 | _d8 | c8 | A8- | A8 | G8- | G8 | F8- | F8 | E8- | E8 | F8- | F8 | E8- | E4 x4 | x8 | %43
 x8 | x8 | x8 | x8 | x8 | D8- | D4 D4- | D8- | D8- | D4 E2 D2 | ^C8 | F8- | F8 | E8- | E8 | x8 | %59
 x8 | x8 | x6 G2 | F8- | F8- | F8- | F8- | F8- | F8- | F4 E4 | x8 | x8 | x8 | x8 | x8 | x8 | x8 | %76
 x8 | x8 | x8 | x8 | F8 | D8 | E8- | x8 | F8- | F8- | F8- | F8- | F8 | B8 | _A8 | G8 | =A8- | A8- | %94
 A6 F2- | F8- | F6 G2- | G8- | G6 A2- | A8- | A8 | A8- | A8 | G8 | _d8 | c8 | x8 | x8 | x8 | %109
 z4 F4 | x8 | x4 [FA]4 | G8 | x8 | x8 | x8 | x8 | x8 | x8 | x8 | x8 | x8 | x8 |][M:2/2] x8 | x8 | %125
 x8 | x8 | z B3 A4 | x8 :|[M:2/2] A8- | A8 | F8- | F2 E2 F4 | F4 E2- ED | C2 F4 G2 | A4 G3 F | %136
 E6 x2 | x8 | x8 | x8 | x8 | x8 | x8 | x8 | x8 | x8 | x8 | x8 |][M:2/2] A8 | G8 | _G8 | F8- | F8- | %153
 F8- | F8- | F8 | E8- | E8 | A8 | G8 | _G8 | F8- | F8- | F8- | F8- | F8 | E8- | E8 | A8 | G8 | %170
 _G8 | F8- | F8- | F8 | F8- | F8- | F8- | F8 | F4 E4 | D4 E4 | x8 |] %181
V:7
"^legato" x6 F6 | E6 _E6 | D6 _D6 | C12- | C6 F6 | E6 _E6 | D6 _D6 |"^=60" C12- | C6 F6 | E6 _E6 | %10
 D6 _D6 | C12 |"^(""^)" x6 |][M:1/1] z4 z2 FD | C2 C2 C2 B,2 | A,8 |"^legato" A,2 C2 F2 B,2 | C8 | %18
 F,8- | F,4 z4 | E4 _E4 | D4 z4 | ^F4 =F4 | E4 z4 | ^G4 =G4 | F2 F4 E2 | D8 | B,8 | A,8 | C8 | %30
 F8- | F8 | E8- | E8 | D8- | D8 | ^C8- | C8 | D8- | D8 | C8- | C8 | =B,8- | B,8 | C4 [G,=B,]4 | %45
 C8 | A,8- | A,8 | B,8- | B,4 B,4- | B,8- | B,8 | A,8- | A,8 | D8- | D8 | C8- | C8 | =B,8- | B,8 | %60
 C8- | C6 C2 |"^(""^)" F8 | _E8 | _D8 | C8 | =B,8- | B,8 | C8 | z4 C4 |"^(""^)" F8 | _E8 | D8 | %73
 _D8 | C8- | C8 | B,8- | B,8- | B,8 | =B,8 | C8- | C8- | C8- | C4 C4 |"^(""^)" F8 | _E8 | _D8 | %87
 _D4 C4 | B,8 | _D8 | C8- | C8 | F8- | F8- | F6 z2 | E4 _E4 | D6 z2 | ^F4 =F4 | E6 z2 | %99
 z4 ^G2 =G2 | F8 | F4 E4 | D8 | B,8 | A,8 | C8 | z8 | z8 | z2 C2 D2 E2 | F2 z2 z4 | E4 z2 E2 | %111
 C4 z4 | E4 z2 E2 | C4 z2 F2 | E4 D2 E2 | D8 | E2 C2 D2 E2 | F8 | B,8- | B,8- | B,8 | C8 | %122
 !fermata![F,F]8 |][M:2/2]"^legato" z4 F4 | FCA,C F4 |"^Sanctus" F4 z2 DE | C2 ^C2 D2 FE | %127
 D2 z2 F4 |"^F.L.Luciani" !fermata!z8 :|[M:2/2] x8 | x8 | x8 | x8 | x8 | x8 | x8 | x8 | x8 | %138
"^TUTTI" D2 E2 F2 G2 | x8 | x8 | x8 | x8 | x8 | z2 D2 E2 E2 | x8 | D2 E2 F2 G2 | x8 |] %148
[M:2/2]"^legato" F8 | E8 | _E8 | D4 _D4 | C8 | C8 | =B,8 | ^A,4 =B,4 | C8 | =B,4 C4 | F8 | E8 | %160
 _E8 | D4 _D4 | C8 | C8 | =B,8 | ^A,4 =B,4 | C8 | D4 C4 | F8 | E8 | _E8 | D4 _D4 | C8 | =D4 C4 | %174
 =B,8- | B,8 | C4 A,4 | B,4 =B,4 | C8- | C8 | [F,C]8 |] %181
V:8
 x12 | x12 | x12 | x12 | x12 | x12 | x12 | x12 | x12 | x12 | x12 | x12 | F,6 |][M:1/1] x8 | x8 | %15
 x8 | x8 | x8 | x8 | x8 | x8 | x8 | x8 | x8 | x8 | x8 | x8 | x8 | x8 | x8 | x8 | x8 | x8 | x8 | %34
 x8 | x8 | x8 | x8 | x8 | x8 | x8 | x8 | x8 | x8 | x8 | x8 | x8 | x8 | x8 | x8 | x8 | x8 | x8 | %53
 x8 | x8 | x8 | x8 | x8 | x8 | x8 | x8 | x8 | x8 | x8 | x8 | x8 | x8 | x8 | x8 | x8 | x8 | x8 | %72
 x8 | x8 | x8 | x8 | x8 | x8 | x8 | x8 | x8 | x8 | x8 | x8 | x8 | x8 | x8 | x8 | x8 | x8 | x8 | %91
 x8 | x8 | x8 | x8 | x8 | x8 | x8 | x8 | x8 | x8 | x8 | x8 | x8 | x8 | x8 | x8 | x8 | x8 | x8 | %110
 z2 C2 D4 | x8 | x8 | x8 | z2 C6 | x8 | x8 | x8 | x8 | x8 | x8 | x8 | x8 |][M:2/2] x8 | x8 | %125
 x4 C4 | x6 A,2 | B,4 F4 | x8 :|[M:2/2] F4 E4 | D4 C4 | B,4 A,2 B,2 | C4 D4 | _D4 C2- CB, | %134
 A,4 B,4 | C4 D4 | C6 E2 | D4 A,4 | B,8 | F8 | [DF]4 [DF]4 | [DF]4 [DF]4 | [CE]4 [CE]4 | %143
 [=B,D]4 [B,D]4 | C6 x2 | D4 A,4 | B,8 | F8 |][M:2/2] x8 | x8 | x8 | x8 | x8 | x8 | x8 | x8 | x8 | %157
 x8 | x8 | x8 | x8 | x8 | x8 | x8 | x8 | x8 | x8 | x8 | x8 | x8 | x8 | x8 | x8 | x8 | x8 | x8 | %176
 x8 | x8 | x8 | x8 | x8 |] %181
V:9
 x12 | x12 | x12 | x12 | x12 | x12 | x12 | x12 | x12 | x12 | x12 | x12 | x6 |][M:1/1] x8 | x8 | %15
 x8 | x8 | x8 | x8 | x8 | x8 | x8 | x8 | x8 | x8 | x8 | x8 | x8 | x8 | x8 | x8 | x8 | x8 | x8 | %34
 x8 | x8 | x8 | x8 | x8 | x8 | x8 | x8 | x8 | x8 | x8 | x8 | x8 | x8 | x8 | x8 | x8 | x8 | x8 | %53
 x8 | x8 | x8 | x8 | x8 | x8 | x8 | x8 | x8 | x8 | x8 | x8 | x8 | x8 | x8 | x8 | x8 | x8 | x8 | %72
 x8 | x8 | x8 | x8 | x8 | x8 | x8 | x8 | x8 | x8 | x8 | x8 | x8 | x8 | x8 | x8 | x8 | x8 | x8 | %91
 x8 | x8 | x8 | x8 | x8 | x8 | x8 | x8 | x8 | x8 | x8 | x8 | x8 | x8 | x8 | x8 | x8 | x8 | x8 | %110
 x8 | x8 | x2 C2 D4 | x8 | x8 | x8 | x8 | x8 | x8 | x8 | x8 | x8 | x8 |][M:2/2] x8 | x8 | x8 | x8 | %127
 x8 | x8 :|[M:2/2] x8 | x8 | x8 | x8 | x8 | x8 | x8 | x8 | x8 | x8 | x8 | x8 | x8 | x8 | x8 | x8 | %145
 x8 | x8 | x8 |][M:2/2] x8 | x8 | x8 | x8 | x8 | x8 | x8 | x8 | x8 | x8 | x8 | x8 | x8 | x8 | x8 | %163
 x8 | x8 | x8 | x8 | x8 | x8 | x8 | x8 | x8 | x8 | x8 | x8 | x8 | x8 | x8 | x8 | x8 | x8 |] %181

